components/SocialProfiles/images/github.svg

<?xml version="1.0" encoding="UTF-8" standalone="no"?>
<svg width="30px" height="31px" viewBox="0 0 30 31" version="1.1" xmlns="http://www.w3.org/2000/svg" xmlns:xlink="http://www.w3.org/1999/xlink">
    <!-- Generator: Sketch 3.7 (28169) - http://www.bohemiancoding.com/sketch -->
    <title>Shape@1,5x</title>
    <desc>Created with Sketch.</desc>
    <defs>
        <filter x="-50%" y="-50%" width="200%" height="200%" filterUnits="objectBoundingBox" id="filter-1">
            <feOffset dx="0" dy="0" in="SourceAlpha" result="shadowOffsetOuter1"></feOffset>
            <feGaussianBlur stdDeviation="20" in="shadowOffsetOuter1" result="shadowBlurOuter1"></feGaussianBlur>
            <feColorMatrix values="0 0 0 0 0   0 0 0 0 0   0 0 0 0 0  0 0 0 0.147956295 0" type="matrix" in="shadowBlurOuter1" result="shadowMatrixOuter1"></feColorMatrix>
            <feMerge>
                <feMergeNode in="shadowMatrixOuter1"></feMergeNode>
                <feMergeNode in="SourceGraphic"></feMergeNode>
            </feMerge>
        </filter>
        <circle id="path-2" cx="35" cy="35" r="35"></circle>
        <mask id="mask-3" maskContentUnits="userSpaceOnUse" maskUnits="objectBoundingBox" x="0" y="0" width="70" height="70" fill="white">
            <use xlink:href="#path-2"></use>
        </mask>
    </defs>
    <g id="Desktop-design" stroke="none" stroke-width="1" fill="none" fill-rule="evenodd">
        <g id="Help-page" transform="translate(-385.000000, -2459.000000)">
            <g id="Group-22" filter="url(#filter-1)" transform="translate(99.000000, 30.000000)">
                <g id="Group-20" transform="translate(206.000000, 2351.000000)">
                    <g id="Group-11" transform="translate(60.000000, 58.000000)">
                        <use id="Oval-872" stroke="#B8C0C9" mask="url(#mask-3)" stroke-width="4" opacity="0.5" xlink:href="#path-2"></use>
                        <path d="M47.1386719,44.4148943 C45.2311194,47.0909559 42.7669269,48.942844 39.7460933,49.9705585 C39.3945311,50.0372926 39.1373698,49.9905789 38.9746093,49.8304151 C38.8118488,49.6702524 38.7304691,49.470048 38.7304691,49.2298028 L38.7304691,45.0054957 C38.7304691,43.7108427 38.391927,42.7632095 37.7148438,42.1625973 C38.4570305,42.0825159 39.1243486,41.9623928 39.7167971,41.8022302 C40.3092444,41.6420663 40.9212241,41.3818009 41.5527338,41.0214338 C42.1842446,40.6610667 42.7115884,40.2172806 43.1347652,39.6900766 C43.5579421,39.1628715 43.9029942,38.4621576 44.1699217,37.5879326 C44.4368492,36.7137077 44.5703124,35.7093512 44.5703124,34.5748608 C44.5703124,32.9598813 44.0559897,31.5851457 43.0273432,30.4506553 C43.5091147,29.2360836 43.4570312,27.8746953 42.8710939,26.3664917 C42.5065106,26.2463686 41.9791668,26.3197768 41.2890624,26.5867153 C40.5989581,26.853655 39.9999996,27.1472869 39.492187,27.4676145 L38.7500003,27.9481036 C37.5390621,27.6010838 36.2890628,27.4275727 35,27.4275727 C33.7109372,27.4275727 32.4609379,27.6010838 31.2499997,27.9481036 C31.0416669,27.8012871 30.7649744,27.6211041 30.4199222,27.4075523 C30.0748701,27.1940018 29.5312501,26.9370729 28.7890622,26.6367667 C28.0468744,26.3364606 27.4869794,26.2463686 27.1093749,26.3664917 C26.5364588,27.8746953 26.4908853,29.2360836 26.9726556,30.4506553 C25.9440103,31.5851457 25.4296876,32.9598813 25.4296876,34.5748608 C25.4296876,35.7093512 25.5631508,36.7103712 25.8300783,37.5779231 C26.0970046,38.4454738 26.4388018,39.1461889 26.8554686,39.6800659 C27.2721354,40.2139441 27.7962242,40.6610667 28.4277339,41.0214338 C29.0592447,41.3818009 29.6712244,41.6420663 30.2636717,41.8022302 C30.8561202,41.9623928 31.5234372,42.0825159 32.265625,42.1625973 C31.7447912,42.6430875 31.4257814,43.3304553 31.3085932,44.2246994 C31.0351557,44.3581698 30.742187,44.4582715 30.4296872,44.5250055 C30.1171874,44.5917407 29.7460941,44.6251083 29.3164061,44.6251083 C28.8867192,44.6251083 28.4602862,44.4816283 28.0371094,44.1946695 C27.6139326,43.9077095 27.2526043,43.4906179 26.9531244,42.9433936 C26.7057293,42.5162913 26.3899744,42.1692703 26.0058588,41.9023318 C25.6217443,41.6353933 25.2994794,41.4752295 25.0390619,41.4218415 L24.6484374,41.3617806 C24.375,41.3617806 24.1861983,41.3918116 24.0820313,41.4518726 C23.9778643,41.5119336 23.945312,41.5886784 23.9843755,41.682107 C24.0234378,41.7755356 24.0820313,41.8689642 24.160156,41.9623928 C24.2382806,42.0558214 24.3229165,42.1359039 24.4140623,42.2026379 L24.5507816,42.3027407 C24.8372391,42.43621 25.1204428,42.6898012 25.4003903,43.0635156 C25.6803389,43.43723 25.8854168,43.7775767 26.0156249,44.0845571 L26.2109378,44.545027 C26.3802083,45.0522106 26.6666669,45.4626292 27.0703126,45.7762814 C27.4739583,46.0899348 27.9101562,46.2901392 28.3789066,46.3768948 C28.8476557,46.4636491 29.3001299,46.510364 29.7363279,46.5170371 C30.1725259,46.5237101 30.5338542,46.5003533 30.8203129,46.4469653 L31.2695309,46.366884 C31.2695309,46.8740676 31.2727859,47.4680068 31.279297,48.1487004 C31.285807,48.8293951 31.289062,49.1897622 31.289062,49.2298028 C31.289062,49.470048 31.2044274,49.6702524 31.0351557,49.8304151 C30.8658852,49.9905789 30.6054689,50.0372926 30.2539056,49.9705585 C27.2330731,48.942844 24.7688806,47.0909559 22.8613281,44.4148943 C20.9537757,41.7388315 20,38.7257596 20,35.3756775 C20,32.5861669 20.6705732,30.0135434 22.0117183,27.6578082 C23.3528646,25.302073 25.1725263,23.4368377 27.4707033,22.0621021 C29.7688802,20.6873678 32.2786462,20 35,20 C37.7213538,20 40.2311198,20.6873678 42.5292967,22.0621021 C44.8274737,23.4368377 46.6471354,25.302073 47.9882805,27.6578082 C49.3294268,30.0135434 50,32.5861669 50,35.3756775 C50,38.7257596 49.0462232,41.7388315 47.1386719,44.4148943 Z" id="Shape" fill="#000000"></path>
                    </g>
                </g>
            </g>
        </g>
    </g>
</svg>

<svg width="30" height="30" viewBox="0 0 30 30" xmlns="http://www.w3.org/2000/svg" xmlns:xlink="http://www.w3.org/1999/xlink"><title>Shape</title><desc>Created with Sketch.</desc><defs><circle id="a" cx="35" cy="35" r="35"/><mask id="b" x="0" y="0" width="70" height="70"><use xlink:href="#a"/></mask></defs><g transform="translate(-20 -20)" fill="none"><use stroke="#B8C0C9" mask="url(#b)" stroke-width="4" opacity=".5" xlink:href="#a"/><path d="M47.139 44.415c-1.908 2.676-4.372 4.528-7.393 5.556-.352.067-.609.02-.771-.14-.163-.16-.244-.36-.244-.601v-4.224c0-1.295-.339-2.242-1.016-2.843.742-.08 1.41-.2 2.002-.36.592-.16 1.204-.42 1.836-.781.632-.36 1.159-.804 1.582-1.331.423-.527.768-1.228 1.035-2.102.267-.874.4-1.879.4-3.013 0-1.615-.514-2.99-1.543-4.124.482-1.215.43-2.576-.156-4.084-.365-.12-.892-.047-1.582.22-.69.267-1.289.561-1.797.881l-.742.48c-1.211-.347-2.461-.521-3.75-.521-1.289 0-2.539.174-3.75.521-.208-.147-.485-.327-.83-.541-.345-.214-.889-.47-1.631-.771-.742-.3-1.302-.39-1.68-.27-.573 1.508-.618 2.87-.137 4.084-1.029 1.134-1.543 2.509-1.543 4.124 0 1.134.133 2.136.4 3.003.267.868.609 1.568 1.025 2.102.417.534.941.981 1.572 1.341.632.36 1.243.621 1.836.781.592.16 1.26.28 2.002.36-.521.48-.84 1.168-.957 2.062-.273.133-.566.234-.879.3-.312.067-.684.1-1.113.1-.43 0-.856-.143-1.279-.43-.423-.287-.785-.704-1.084-1.251-.247-.427-.563-.774-.947-1.041-.384-.267-.706-.427-.967-.48l-.391-.06c-.273 0-.462.03-.566.09-.104.06-.137.137-.098.23.039.093.098.187.176.28.078.093.163.174.254.24l.137.1c.286.133.57.387.85.761s.485.714.615 1.021l.195.46c.169.507.456.918.859 1.231.404.314.84.514 1.309.601.469.087.921.133 1.357.14.436.007.798-.017 1.084-.07l.449-.08c0 .507.003 1.101.01 1.782l.01 1.081c0 .24-.085.44-.254.601-.169.16-.43.207-.781.14-3.021-1.028-5.485-2.88-7.393-5.556-1.908-2.676-2.861-5.689-2.861-9.039 0-2.79.671-5.362 2.012-7.718s3.161-4.221 5.459-5.596c2.298-1.375 4.808-2.062 7.529-2.062s5.231.687 7.529 2.062c2.298 1.375 4.118 3.24 5.459 5.596 1.341 2.356 2.012 4.928 2.012 7.718 0 3.35-.954 6.363-2.861 9.039z" fill="#000"/></g></svg>
